X: 7557
T: Cock O' The North
R: jig
M: 6/8
K: Amixolydian
|:e/d/||"A"cdc cBA|"A"cde "D"f2e|"A"cdc cBA|"E7"BcB Bed|
"A"cdc cBA|"A"cde "D"f2e|"A"cAc "G"B=GB|"A"ABA A2:|
|:e||"A"a2e "D"f2e|"A/C#"a2e "D/B"f2e|"A"cdc "(F#m)"cBA|"(Bm)" BcB "E7"B2 e|
"A"a2 e "D"f2 e|"A/C#"a2e "D/B"f2 e|"A"cAc "G"B=GB|"A"ABA A2:|

